library/images/5e7fb31543a59d4bb4145c28_shield-1.svg

<svg enable-background="new 0 0 512.008 512.008" height="512" viewBox="0 0 512.008 512.008" width="512" xmlns="http://www.w3.org/2000/svg"><g fill="#458bc9"><path d="m469.834 223.277v-148.51c0-4.037-2.601-7.617-6.441-8.863l-201.379-65.444c-2.039-.666-4.147-.585-6.013.093-1.883-.672-3.985-.753-6.024-.093l-201.373 65.444c-3.841 1.245-6.441 4.819-6.441 8.863l.012 148.157c-.081 2.166-5.74 217.592 209.008 288.609.944.319 1.94.475 2.931.475h3.783c.991 0 1.987-.156 2.931-.475 214.741-71.017 209.082-286.449 209.006-288.256zm-213.45 270.09h-.765c-199.815-66.979-195.123-261.482-194.821-270.09v-141.744l194.932-63.348c.093-.029.18-.064.272-.093.081.029.174.064.261.093l194.937 63.353.012 142.098c.075 2.016 5.352 202.595-194.828 269.731z"/><path d="m411.665 101.251-151.122-50.854c-1.309-.434-2.665-.539-3.922-.434-1.263-.098-2.601 0-3.922.434l-151.105 50.853c-3.783 1.28-6.343 4.831-6.343 8.834l.012 115.718c.052 1.662 7.606 167.197 157.993 225.453 1.083.417 2.23.626 3.365.626s2.282-.209 3.365-.626c150.393-58.256 157.958-223.79 158.021-225.783v-115.388c-.004-4.002-2.559-7.553-6.342-8.833zm-155.044 331.306c-135.523-54.908-142.683-205.88-142.735-207.079v-108.698l142.735-48.038 142.752 48.038.006 108.362c-.063 1.529-7.235 152.507-142.758 207.415z"/><path d="m363.292 187.183c-3.962-3.313-9.842-2.757-13.126 1.182l-107.84 129.163-69.563-73.05c-3.574-3.742-9.453-3.858-13.172-.33-3.73 3.551-3.875 9.453-.33 13.172l76.769 80.621c1.767 1.848 4.205 2.896 6.754 2.896.098 0 .197 0 .301-.012 2.659-.081 5.15-1.303 6.853-3.337l114.537-137.186c3.294-3.949 2.767-9.823-1.183-13.119z"/></g></svg>

<?xml version="1.0"?>
<svg xmlns="http://www.w3.org/2000/svg" xmlns:xlink="http://www.w3.org/1999/xlink" version="1.1" id="Capa_1" x="0px" y="0px" viewBox="0 0 512.008 512.008" style="enable-background:new 0 0 512.008 512.008;" xml:space="preserve" width="512px" height="512px"><g><g>
	<g>
		<path d="M469.834,223.277V74.767c0-4.037-2.601-7.617-6.441-8.863L262.014,0.46c-2.039-0.666-4.147-0.585-6.013,0.093    c-1.883-0.672-3.985-0.753-6.024-0.093L48.604,65.904c-3.841,1.245-6.441,4.819-6.441,8.863l0.012,148.157    c-0.081,2.166-5.74,217.592,209.008,288.609c0.944,0.319,1.94,0.475,2.931,0.475h3.783c0.991,0,1.987-0.156,2.931-0.475    C475.569,440.516,469.91,225.084,469.834,223.277z M256.384,493.367h-0.765C55.804,426.388,60.496,231.885,60.798,223.277V81.533    l194.932-63.348c0.093-0.029,0.18-0.064,0.272-0.093c0.081,0.029,0.174,0.064,0.261,0.093L451.2,81.538l0.012,142.098    C451.287,225.652,456.564,426.231,256.384,493.367z" data-original="#000000" class="active-path" data-old_color="#000000" fill="#458BC9"/>
	</g>
</g><g>
	<g>
		<path d="M411.665,101.251L260.543,50.397c-1.309-0.434-2.665-0.539-3.922-0.434c-1.263-0.098-2.601,0-3.922,0.434l-151.105,50.853    c-3.783,1.28-6.343,4.831-6.343,8.834l0.012,115.718c0.052,1.662,7.606,167.197,157.993,225.453    c1.083,0.417,2.23,0.626,3.365,0.626c1.135,0,2.282-0.209,3.365-0.626c150.393-58.256,157.958-223.79,158.021-225.783V110.084    C418.003,106.082,415.448,102.531,411.665,101.251z M256.621,432.557c-135.523-54.908-142.683-205.88-142.735-207.079V116.78    l142.735-48.038l142.752,48.038l0.006,108.362C399.316,226.671,392.144,377.649,256.621,432.557z" data-original="#000000" class="active-path" data-old_color="#000000" fill="#458BC9"/>
	</g>
</g><g>
	<g>
		<path d="M363.292,187.183c-3.962-3.313-9.842-2.757-13.126,1.182l-107.84,129.163l-69.563-73.05    c-3.574-3.742-9.453-3.858-13.172-0.33c-3.73,3.551-3.875,9.453-0.33,13.172l76.769,80.621c1.767,1.848,4.205,2.896,6.754,2.896    c0.098,0,0.197,0,0.301-0.012c2.659-0.081,5.15-1.303,6.853-3.337l114.537-137.186    C367.769,196.353,367.242,190.479,363.292,187.183z" data-original="#000000" class="active-path" data-old_color="#000000" fill="#458BC9"/>
	</g>
</g></g> </svg>
